src/components/00-materials/images-raw/Bills Dollar.svg

<svg width="96" height="96" viewBox="0 0 96 96" fill="none" xmlns="http://www.w3.org/2000/svg">
<path d="M75 35H11C10.4477 35 10 35.4477 10 36V70C10 70.5523 10.4477 71 11 71H75C75.5523 71 76 70.5523 76 70V36C76 35.4477 75.5523 35 75 35Z" stroke="#00008F" stroke-width="2" stroke-linecap="round" stroke-linejoin="round"/>
<path d="M15 35V31C15 30.7348 15.1054 30.4804 15.2929 30.2929C15.4804 30.1054 15.7348 30 16 30H80C80.2652 30 80.5196 30.1054 80.7071 30.2929C80.8946 30.4804 81 30.7348 81 31V65C81 65.2652 80.8946 65.5196 80.7071 65.7071C80.5196 65.8946 80.2652 66 80 66H76" stroke="#00008F" stroke-width="2" stroke-linecap="round" stroke-linejoin="round"/>
<path d="M20 30V26C20 25.7348 20.1054 25.4804 20.2929 25.2929C20.4804 25.1054 20.7348 25 21 25H85C85.2652 25 85.5196 25.1054 85.7071 25.2929C85.8946 25.4804 86 25.7348 86 26V60C86 60.2652 85.8946 60.5196 85.7071 60.7071C85.5196 60.8946 85.2652 61 85 61H81" stroke="#00008F" stroke-width="2" stroke-linecap="round" stroke-linejoin="round"/>
<path d="M67 40H19C19 41.0609 18.5786 42.0783 17.8284 42.8284C17.0783 43.5786 16.0609 44 15 44V62C16.0609 62 17.0783 62.4214 17.8284 63.1716C18.5786 63.9217 19 64.9391 19 66H67C67 64.9391 67.4214 63.9217 68.1716 63.1716C68.9217 62.4214 69.9391 62 71 62V44C69.9391 44 68.9217 43.5786 68.1716 42.8284C67.4214 42.0783 67 41.0609 67 40Z" stroke="#00008F" stroke-width="2" stroke-linecap="round" stroke-linejoin="round"/>
<path d="M43 66C50.1797 66 56 60.1797 56 53C56 45.8203 50.1797 40 43 40C35.8203 40 30 45.8203 30 53C30 60.1797 35.8203 66 43 66Z" stroke="#00008F" stroke-width="2" stroke-linecap="round" stroke-linejoin="round"/>
<path d="M39.07 57.38C39.3395 58.1922 39.8725 58.891 40.5845 59.3657C41.2965 59.8404 42.1467 60.0636 43 60C45.21 60 47 58.59 47 56.85C46.9959 56.5738 46.9346 56.3014 46.82 56.05C46.5552 55.5012 46.1388 55.0396 45.62 54.72L43 53L40.38 51.28C39.8682 50.9739 39.4525 50.5304 39.18 50C39.0654 49.7486 39.0041 49.4762 39 49.2C39 47.41 40.79 46 43 46C43.8549 45.9352 44.7068 46.1592 45.4194 46.6361C46.1319 47.1129 46.6638 47.815 46.93 48.63M65 53H61H65ZM25 53H21H25ZM43 44V62V44Z" stroke="#00008F" stroke-width="2" stroke-linecap="round" stroke-linejoin="round"/>
</svg>

<svg width="96" height="96" viewBox="0 0 96 96" fill="none" xmlns="http://www.w3.org/2000/svg"><path d="M75 35H11a1 1 0 00-1 1v34a1 1 0 001 1h64a1 1 0 001-1V36a1 1 0 00-1-1z" stroke="#00008F" stroke-width="2" stroke-linecap="round" stroke-linejoin="round"/><path d="M15 35v-4a1 1 0 011-1h64a1 1 0 011 1v34a1 1 0 01-1 1h-4" stroke="#00008F" stroke-width="2" stroke-linecap="round" stroke-linejoin="round"/><path d="M20 30v-4a1 1 0 011-1h64a1 1 0 011 1v34a1 1 0 01-1 1h-4" stroke="#00008F" stroke-width="2" stroke-linecap="round" stroke-linejoin="round"/><path d="M67 40H19a4 4 0 01-4 4v18a4 4 0 014 4h48a4 4 0 014-4V44a4 4 0 01-4-4z" stroke="#00008F" stroke-width="2" stroke-linecap="round" stroke-linejoin="round"/><path d="M43 66c7.18 0 13-5.82 13-13s-5.82-13-13-13-13 5.82-13 13 5.82 13 13 13z" stroke="#00008F" stroke-width="2" stroke-linecap="round" stroke-linejoin="round"/><path d="M39.07 57.38A3.84 3.84 0 0043 60c2.21 0 4-1.41 4-3.15a2 2 0 00-.18-.8 3.19 3.19 0 00-1.2-1.33L43 53l-2.62-1.72a3.19 3.19 0 01-1.2-1.28 2 2 0 01-.18-.8c0-1.79 1.79-3.2 4-3.2a3.83 3.83 0 013.93 2.63M65 53h-4 4zm-40 0h-4 4zm18-9v18-18z" stroke="#00008F" stroke-width="2" stroke-linecap="round" stroke-linejoin="round"/></svg>
